X:1
T:Title
%%score { ( 1 4 5 ) | ( 2 3 ) }
L:1/8
Q:1/4=106
M:3/4
K:Eb
V:1 treble nm="Grand Piano"
V:4 treble 
V:5 treble 
V:2 bass 
V:3 bass 
V:1
 G3 F E2 | A4 A2 | A3 G F2 | B6 | c3 d e2 | e2 B2 G2 | A4 G2 | [DF]6 | G3 F E2 | A4 A2 | A3 G F2 | %11
w: J.~H.~Fillmore * *|||||||||||
 B6 | z2 z d e2 | e2 B2 [B,EG]2 | [B,DG]4 [A,DF]2 | [G,E]6 |] %16
w: |||||
V:2
 B,4 z2 | [F,B,D]4 [F,B,D]2 | [F,B,D]4 [F,B,D]2 | [G,B,E]6 | [A,E]4 z2 | [G,B,E]4 [G,B,E]2 | %6
 [F,B,D]4 [E,B,E]2 | [B,,B,]6 | B,4 z2 | [F,B,D]4 [F,B,D]2 | [F,B,D]4 [F,B,D]2 | E4 z2 | C2 z2 z2 | %13
 [G,B,E]4 E,2 | z2 z A B,,2 | E,6 |] %16
V:3
 [E,E]3- [E,A,E] [E,G,]2 | x6 | x6 | x6 | z2 z B, [A,CE]2 | x6 | x6 | x6 | %8
 [E,E]3- [E,A,E] [E,G,]2 | x6 | x6 | [G,B,]6 | A,3- [A,B,] [A,CE]2 | x6 | B,,4 z2 | x6 |] %16
V:4
 x6 | x6 | x6 | x6 | x6 | x6 | x6 | x6 | x6 | x6 | x6 | z2 z2 _D2 | c4 z2 | x6 | x6 | x6 |] %16
V:5
 x6 | x6 | x6 | x6 | x6 | x6 | x6 | x6 | x6 | x6 | x6 | x6 | z2 E2 z2 | x6 | x6 | x6 |] %16

